Origami/48x48/apps/scantailor.svg

<svg width="48" height="48" version="1" xmlns="http://www.w3.org/2000/svg">
 <path d="m44 42v-34c0-1.108-0.892-2-2-2h-36c-1.108 0-2 0.892-2 2v34c0 1.108 0.892 2 2 2h36c1.108 0 2-0.892 2-2z" style="opacity:.2"/>
 <path d="m44 41v-34c0-1.108-0.892-2-2-2h-36c-1.108 0-2 0.892-2 2v34c0 1.108 0.892 2 2 2h36c1.108 0 2-0.892 2-2z" style="fill:#d5b380"/>
 <path d="m6.9996365 32.999573s3.0166285 9.6e-4 6.0001915 0c2.983555-9.61e-4 4.000003-2 4.000003-4 0-8.29935-8.0000015 0.274359-8.0000015-8-0.02419-2.013419 0.9754615-4 3.9999985-4h5.999808" style="fill:none;opacity:.2;stroke-width:4;stroke:#000000"/>
 <path d="m6.9996365 32s3.0166285 9.6e-4 6.0001915 0c2.983555-9.61e-4 4.000003-2 4.000003-4 0-8.29935-8.0000015 0.274359-8.0000015-8-0.02419-2.013419 0.9754615-4 3.9999985-4h5.999808" style="fill:none;stroke-width:4;stroke:#ff4141"/>
 <path d="m29 20.999573h12m-5.999998 14v-14" style="fill:none;opacity:.2;stroke-width:4;stroke:#000000"/>
 <path d="m29 20h12m-5.999998 14v-14" style="fill:none;stroke-width:4;stroke:#ffffff"/>
 <path d="m6 5c-1.108 0-2 0.892-2 2v1c0-1.108 0.892-2 2-2h36c1.108 0 2 0.892 2 2v-1c0-1.108-0.892-2-2-2h-36z" style="fill:#ffffff;opacity:.2"/>
 <rect x="23" y="22" width="2" height="4" style="fill:#353535"/>
 <rect x="23" y="16" width="2" height="4" style="fill:#353535"/>
 <rect x="23" y="10" width="2" height="4" style="fill:#353535"/>
 <rect x="23" y="34" width="2" height="4" style="fill:#353535"/>
 <rect x="23" y="28" width="2" height="4" style="fill:#353535"/>
</svg>

<svg xmlns="http://www.w3.org/2000/svg" width="48" height="48" version="1">
 <path style="opacity:0.2" d="M 44,42 44,8 C 44,6.892 43.108,6 42,6 L 6,6 C 4.892,6 4,6.892 4,8 l 0,34 c 0,1.108 0.892,2 2,2 l 36,0 c 1.108,0 2,-0.892 2,-2 z"/>
 <path style="fill:#d5b380" d="M 44,41 44,7 C 44,5.892 43.108,5 42,5 L 6,5 C 4.892,5 4,5.892 4,7 l 0,34 c 0,1.108 0.892,2 2,2 l 36,0 c 1.108,0 2,-0.892 2,-2 z"/>
 <path style="opacity:0.2;fill:none;stroke:#000000;stroke-width:4" d="m 6.9996365,32.999573 c 0,0 3.0166285,9.6e-4 6.0001915,0 2.983555,-9.61e-4 4.000003,-2 4.000003,-4 0,-8.29935 -8.0000015,0.274359 -8.0000015,-8 -0.02419,-2.013419 0.9754615,-4 3.9999985,-4 l 5.999808,0"/>
 <path style="fill:none;stroke:#ff4141;stroke-width:4" d="m 6.9996365,32 c 0,0 3.0166285,9.6e-4 6.0001915,0 2.983555,-9.61e-4 4.000003,-2 4.000003,-4 0,-8.29935 -8.0000015,0.274359 -8.0000015,-8 -0.02419,-2.013419 0.9754615,-4 3.9999985,-4 l 5.999808,0"/>
 <path style="opacity:0.2;fill:none;stroke:#000000;stroke-width:4" d="m 29,20.999573 12,0 m -5.999998,14 0,-14"/>
 <path style="fill:none;stroke:#ffffff;stroke-width:4" d="m 29,20 12,0 m -5.999998,14 0,-14"/>
 <path style="fill:#ffffff;opacity:0.2" d="M 6 5 C 4.892 5 4 5.892 4 7 L 4 8 C 4 6.892 4.892 6 6 6 L 42 6 C 43.108 6 44 6.892 44 8 L 44 7 C 44 5.892 43.108 5 42 5 L 6 5 z"/>
 <rect style="fill:#353535" width="2" height="4" x="23" y="22"/>
 <rect style="fill:#353535" width="2" height="4" x="23" y="16"/>
 <rect style="fill:#353535" width="2" height="4" x="23" y="10"/>
 <rect style="fill:#353535" width="2" height="4" x="23" y="34"/>
 <rect style="fill:#353535" width="2" height="4" x="23" y="28"/>
</svg>
